X:1
T:James Gibb editions
T:Occhi neri - Caldara
T:#
%%score 1 { ( 2 4 ) | 3 }
L:1/8
Q:1/4=76
M:4/4
K:Bb
V:1 treble nm="Alto"
V:2 treble nm="Midi_7"
V:4 treble 
V:3 bass 
V:1
"^recit.""^Antonio Caldara\n(1670 -1736)""^Occhi neri" z2 z F/B/ BF z G | EE z E/E/ E2 EE | %2
w: Oc- chi ne- ri ma|stel- le del bel vol- to gen-|
 =A2 EE/F/ DD z D/D/ |[Q:1/4=80][Q:1/4=80] D2 D=E ^F>A FG | GG z G GGBG | E2 E^F/G/ GD z2 | %6
w: til ful- gi- de~an- cel- le, per- chè|for- se~in a- mor co- sì~in- fe-|de- li se tan- to va- ghe,~oh|Dio, tan- to cru- de- li.|
 !fermata!z8 ||S z8 | z8 | z8 | z4 z2 EC | (TD>C) D2 z4 | z FG=B, C2 z2 | B2 _A2 G3 E | %14
w: ||||Non mi~a-|ma\- * te?|Io sò per- chè,|per- chè~in voi pie-|
 _A3 F BDEA | G2 F2 E2 z2 | z4 z2 GE | (F>E) F2 z4 | A2 z2 BFB_A | G2 GE C2 z E | _A2 F2 DGDE | %21
w: tà non v'è, nò, nò, pie-|tà non v'è;|non mi~a-|ma\- * te?|nò, nò, io sò per-|chè, per- chè~in voi pie-|tà non v'è, non v'è pie-|
 (E2 D2) z4 | z4 z GED | C_AFB G2 z2 | F3 G F3 D | E3 C (_A2 G)F | E2 D2 C2 z2 | F2 z2 z G_AF | %28
w: tà, *|io so per-|chè, si, si, per- che,|per- chè~in voi pie-|ta non v'è, * pie-|tà non v'è,|nò, non v'è pie-|
 G2 z2 F2 z2 | z G_AF G2 z2 | z4 z2 GG | cB_AG F3 !courtesy!_A | GDEc E2 D2 | !fermata!C4 z4 | z8 | %35
w: tà, nò,|pie- tà non v'è,|non mi~a-|ma- te per- chè~in voi pie-|tà, nò, nò, pie- tà non|è.||
 z8 | z4 z2!fine! || GA | (^F>=E) D2 z4 | z4 z BAG | (^F>=E) D2 z2 GB | E2 E2 (EF/G/ F)E | %42
w: ||Sie- te|lu\- * ci|e sie- te~a-|mo\- * re ca- re~ar-|cie- re del * * * mio|
 (ED) D2 A3 A | BF (B3 G A2- | Ac E3 CD)B | D2 C2 B,2 z2 | z4 z2 BA | G2 G2 z BAG | ^F2 F2 z2 G=F | %49
w: co\- * re sen- za~a-|mo- re~e sen\- * *|* * * * * za,|sen- za fè,|sie- te|lu- ci e sie- te|amo- re ca- re~ar-|
 E2 E2 F3 E | D2 D2 (EC)AG | ^F2 GA A3 G | G8"^al fine" |] %53
w: cie- re del mio|co- re sen\- * za a-|mo- re e sen- za|fè.|
V:2
 [B,FB]8 | [B,EG]8 | [CE=A]4 [DFB]4- | [DFB]4 [C^Fc]4 | [DGB]8 | [EG]2 [Gce]2 d3 c | %6
 !fermata![DG=B]8 || [EGc]2 [=Bd][ce] [Ff]2 [Ge][_Ad] | (g3 e) (f3 d) | %9
 ([_A=Bf]3 [FBd]) ([Gce]3 [EGc]) | [D_Ad]2 [EGc][DG=B] [EGc]2 z2 | [DG=B]2 z2 [EGc]2 [Bd][ce] | %12
 [Ff]2 [Ge][_Ad] [Gcg]3 [_G=Ae] | f3 d fe e2 | g2 dc B>c [EGB][E_A] | %15
 [EG]2 [DF]2 [G,B,E]2 [DF][EG] | _A2 GF B2 [GB][=Ac] | [FBd]2 z2 [DFB]2 [Ac][Bd] | %18
 e2 dc [FBf]3 [_AB^f] | [GBg]2 [Ge]2 [ce]2 [_Ac]2 | c2 _Ac [D=B][Gc] [Fd][Ec] | %21
 [Ec]2 [D=B]2 [EGc]2 [Bd][ce] | [Ff]2 [Ge][_Ad] [Gcg]2 z [Gdf] | [Gce] z [_A_Bf] z ([GBg]3 [Gce]) | %24
 ([F=Bf]3 [GBd]) ([_ABf]3 [FAB]) | ([EGc]3 [Gce]) [FAd]2 [EGe][cf] | [eg]2 [G=B]2 [EGc]2 [Bd][ce] | %27
 [Ff]2 [Ge][_Ad] [Gcg]2 z2 | [Gce]2 [F=Bd][EGc] c2 BB | [Gc]2 z2 [EGc]2 [=Bd][ce] | %30
 [Ff]2 [Ge][_Ad] g3 e | [ce]2 [_A_d][Gc] c2 [F=B][EAc] | [DGd]2 [EG][CFc] [EGc]2 [DG=B]2 | %33
 !fermata![EGc]2 [=Bd][ce] [Ff]2 [Ge][_Ad] | (g3 e) (f3 d) | ([_A=Bf]3 [FBd]) ([Gce]3 [EGc]) | %36
 [D_Ad]2 [EGc][DG=B] [EGc]2 || z [G=Ae] | (d3 c) ([GB]2 [=FA][GB]) | (c2 Bc) [DGd]2 [EAc][GB] | %40
 [^FA]3 [FA] (d3 B) | [EG]3 [EG] (c3 A) | [DF]3 [FBd] e2 dc | (f3 d) (e3 c) | %44
 (e3 c) (e2 [Fd])[DF]- | [DFG]2 [CEA][EFA] [DFB]2 [Ac][Bd] | (e2 de) (f3 d) | B2 eg (e3 c) | %48
 A2 d2 (d3 B) | G2 ce (c3 A) | (F2 B2) B2 Ae | ([^Fd]2 [Gdg][A=e]) (^f3 g) | %52
 [G=Bg]4- [GBg] [GB][^Fc][=FGd] |] %53
V:3
 D,8 | E,8 | C,4 B,,4- | B,,4 A,,4 | G,,8 | C,4 D,4 | !fermata!G,,8 || C=B,/C/ G,C DC/D/ G,D | %8
 E/D/E/D/ E/D/E/C/ D/C/D/C/ D/C/D/G,/ | D/C/D/C/ D/C/D/F,/ C/=B,/C/B,/ C/B,/C/E,/ | %10
 F,E,/F,/ G,G,, C,2 z2 | G,,2 z2 C=B,/C/ G,C | DC/D/ G,D E/D/E/D/ E/D/E/C/ | %13
 D/C/D/C/ D/C/D/B,/ E,D,/E,/ B,,E, | F,E,/F,/ B,,F, G,F,G,C | B,G,/_A,/ B,B,, E,D,/E,/ B,,E, | %16
 F,E,/F,/ B,,F, G,2 E,2 | B,,2 z2 B,A,/B,/ F,B, | CB,/C/ F,C D/C/D/C/ D/C/D/B,/ | %19
 E,/E,/E,/D,/ E,/D,/E,/C,/ _A,/G,/A,/G,/ A,/G,/A,/G,/ | _A,/G,/A,/G,/ A,/G,/A,/F,/ G,E, =B,,C, | %21
 G,,4 C=B,/C/ G,C | DC/D/ G,D E2 z =B, | C z D z E/D/E/D/ E/D/E/C/ | %24
 D/C/D/C/ D/C/D/G,/ D/C/D/C/ D/C/D/F,/ | C/=B,/C/B,/ C/B,/C/E,/ F,E,/F,/ C,_A, | %26
 G,F, G,G,, C=B,/C/ G,C | DC/D/ G,D E2 z2 | C=B,/C/ G,C DC/D/ G,D | E2 z2 C=B,/C/ G,C | %30
 DC/D/ G,D E/D/E/D/ E/D/E/C/ | _A,G,F,=E, F,_E,=D,C, | =B,,2 C,_A, G,2 G,,2 | %33
 !fermata!C=B,/C/ G,C DC/D/ G,D | E/D/E/D/ E/D/E/C/ D/C/D/C/ D/C/D/G,/ | %35
 D/C/D/C/ D/C/D/F,/ C/=B,/C/B,/ C/B,/C/E,/ | F,E,/F,/ G,G,, C,2 || z C, | D,4 G,^F,/G,/ D,G, | %39
 A,G,/A,/ D,A, B,2 C2 | D/C/D/C/ D/C/D/C/ B,/A,/B,/A,/ B,/A,/B,/G,/ | %41
 C/B,/C/B,/ C/B,/C/B,/ A,/G,/A,/G,/ A,/G,/A,/F,/ | B,A,/B,/ F,B, CB,/C/ F,C | %43
 D/C/D/C/ D/C/D/B,/ C/B,/C/B,/ C/B,/C/F,/ | C/B,/C/B,/ C/B,/C/E,/ B,/A,/B,/A,/ B,/A,/B,/D,/ | %45
 E,D,/E,/ F,F, B,A,/B,/ F,B, | CB,/C/ F,C D/C/D/C/ D/C/D/B,/ | ED/E/ E,E C/B,/C/B,/ C/B,/C/A,/ | %48
 DC/D/ D,D B,/A,/B,/A,/ B,/A,/B,/G,/ | CB,/C/ C,C A,/G,/A,/G,/ A,/G,/A,/F,/ | %50
 B,A,/B,/ B,,B, CB,/C/ C,C | DC B,C D2 D,2 | G,4- G, G,A,=B, |] %53
V:4
 x8 | x8 | x8 | x8 | x8 | x4 [GB]2 [^FA]2 | x8 || x2 G2 _B3 B | [Gc]4 [G=B]4 | x8 | x8 | x6 G2 | %12
 =B3 B x4 | [FB]4 [GB]3 [GB] | [F_A]3 [DA] [EG][DA] x2 | x6 B,2 | [B,D]4 [B,E]2 E2 | x6 F2 | %18
 [FA]4 x4 | x4 E4 | [CF]4 x2 G2 | G4 x2 G2 | =B3 B x4 | x8 | x8 | x8 | c_A DF x2 G2 | =B3 B x4 | %28
 x4 F3 [F_A] | x6 G2 | =B3 B [Gc]4 | _AB x2 AG x2 | x8 | x2 G2 =B3 B | [Gc]4 [G=B]4 | x8 | x6 || %37
 x2 | [^FA]4 D4 | [D^F]4 x4 | x4 [DG]4 | x4 [C=F]4 | x4 [FA]4 | [FB]4- BG A2- | AG A3 c x2 | %45
 x6 F2 | [FA]4 [FB]4 | G4 G4 | ^F4 [DG]4 | E3 G [C=F]4 | D4 E3 G | x4 [Ad]2- [Ac]2 | x8 |] %53

